public/icons/pen-light.svg

<svg width="32px" height="32px" viewBox="0 0 24 24" fill="none" xmlns="http://www.w3.org/2000/svg">

    <g id="SVGRepo_bgCarrier" stroke-width="0"/>

    <g id="SVGRepo_tracerCarrier" stroke-linecap="round" stroke-linejoin="round"/>

    <g id="SVGRepo_iconCarrier">
        <path d="M11.4001 18.1612L11.4001 18.1612L18.796 10.7653C17.7894 10.3464 16.5972 9.6582 15.4697 8.53068C14.342 7.40298 13.6537 6.21058 13.2348 5.2039L5.83882 12.5999L5.83879 12.5999C5.26166 13.1771 4.97307 13.4657 4.7249 13.7838C4.43213 14.1592 4.18114 14.5653 3.97634 14.995C3.80273 15.3593 3.67368 15.7465 3.41556 16.5208L2.05445 20.6042C1.92743 20.9852 2.0266 21.4053 2.31063 21.6894C2.59466 21.9734 3.01478 22.0726 3.39584 21.9456L7.47918 20.5844C8.25351 20.3263 8.6407 20.1973 9.00498 20.0237C9.43469 19.8189 9.84082 19.5679 10.2162 19.2751C10.5343 19.0269 10.823 18.7383 11.4001 18.1612Z"
              fill="#464031"/>
        <path d="M20.8482 8.71306C22.3839 7.17735 22.3839 4.68748 20.8482 3.15178C19.3125 1.61607 16.8226 1.61607 15.2869 3.15178L14.3999 4.03882C14.4121 4.0755 14.4246 4.11268 14.4377 4.15035C14.7628 5.0875 15.3763 6.31601 16.5303 7.47002C17.6843 8.62403 18.9128 9.23749 19.85 9.56262C19.8875 9.57563 19.9245 9.58817 19.961 9.60026L20.8482 8.71306Z"
              fill="#464031"/>
    </g>

</svg>

<svg xmlns="http://www.w3.org/2000/svg" width="32" height="32" fill="none" viewBox="0 0 24 24"><g fill="#464031"><path d="m11.4 18.16 7.4-7.4a10.29 10.29 0 0 1-5.57-5.56l-7.4 7.4c-.57.58-.86.87-1.1 1.18-.3.38-.55.79-.75 1.21-.18.37-.3.76-.56 1.53L2.05 20.6a1.06 1.06 0 0 0 1.35 1.35l4.08-1.37c.77-.25 1.16-.38 1.52-.56.43-.2.84-.45 1.22-.74.31-.25.6-.54 1.18-1.12ZM20.85 8.71a3.93 3.93 0 0 0-5.56-5.56l-.89.89a8.65 8.65 0 0 0 2.13 3.43 8.75 8.75 0 0 0 3.43 2.13l.89-.89Z"/></g></svg>
